;Sliced by ideaMaker 4.3.1.6452, 2023-01-16 22:16:59 UTC+0100
;Dimension: 305.000 305.000 300.000 0.400 0.400
;Plate Shape: 0
;Origin Center: 0
;Extruder Offset #1: 0.000 0.000
;Filament Diameter #1: 1.750
;Filament Diameter #2: 1.750
;Filament Compensation #1: 90.00
;Filament Compensation #2: 90.00
;Filament Density #1: 1240.00
;Filament Density #2: 1240.00
;Filament Type #1: PLA
;Filament Type #2: PLA
;Filament Name #1: [Raise3D] PLA 1.75mm
;Filament Name #2: [Raise3D] PLA 1.75mm
;Firmware: Raise3D Pro2
;Bounding Box: 130.425 174.525 132.127 173.127 0.000 3.200
;Model Gap: 0.000
M221 T0 S90.00
M140 S60.00
M104 T0 S205.00
M109 T0 S205.00
T0
M190 S60.00
G21
G90
M82
M107
G28 X0 Y0
G28 Z0
G1 Z15.0 F300
G92 E0
G1 F140 E29
G1 X20 Y0 F140 E30
G92 E0
G1 F6000.0
M117 Printing...
M1001
;TOTAL_NUM: 1
;PRINTING_TIME: 0
;REMAINING_TIME: 2688
;LAYER:0
;Z:0.300
;HEIGHT:0.300
M106 S0
;PRINTING: 1.STL
;PRINTING_ID: 0
G1 F2400 E-0.5000
G0 F6000 X173.351 Y151.707
G0 F300 Z0.300
;TYPE:WALL-INNER
;WIDTH:0.400
G1 F1500 E0.0000
G1 F900 X172.725 Y151.534 E0.0324
G1 X172.587 Y151.463 E0.0401
G1 X172.138 Y151.357 E0.0632
G1 X171.856 Y151.250 E0.0782
G1 X171.520 Y151.192 E0.0952
G1 X171.253 Y151.120 E0.1090
G1 X170.808 Y150.955 E0.1327
G1 X170.711 Y150.955 E0.1375
G1 X170.003 Y150.757 E0.1742
G1 X169.727 Y150.656 E0.1889
G1 X142.881 Y142.865 E1.5835
G1 X142.012 Y142.615 E1.6286
G1 X141.966 Y142.618 E1.6309
G1 X141.611 Y142.492 E1.6497
G1 X141.145 Y142.401 E1.6734
G1 X140.974 Y142.317 E1.6829
G1 X140.523 Y142.193 E1.7062
G1 X140.435 Y142.183 E1.7106
G1 X131.567 Y139.611 E2.1713
G1 X131.574 Y134.247 E2.4389
G1 X136.569 Y134.254 E2.6881
G1 X173.375 Y134.302 E4.5244
G1 X173.351 Y151.707 E5.3927
G1 F2400 E4.8927
G0 F6000 X173.750 Y152.232
;TYPE:WALL-OUTER
;WIDTH:0.400
G1 F1500 E5.3927
G1 F900 X172.579 Y151.909 E5.4533
G1 X172.447 Y151.841 E5.4607
G1 X172.021 Y151.740 E5.4826
G1 X171.750 Y151.638 E5.4970
G1 X171.434 Y151.583 E5.5130
G1 X171.131 Y151.502 E5.5287
G1 X170.736 Y151.355 E5.5497
G1 X170.656 Y151.355 E5.5537
G1 X169.880 Y151.138 E5.5939
G1 X169.602 Y151.036 E5.6087
G1 X142.770 Y143.249 E7.0025
G1 X141.969 Y143.019 E7.0441
G1 X141.910 Y143.023 E7.0471
G1 X141.505 Y142.879 E7.0685
G1 X141.017 Y142.783 E7.0933
G1 X140.832 Y142.693 E7.1036
G1 X140.447 Y142.587 E7.1235
G1 X140.357 Y142.577 E7.1280
G1 X131.167 Y139.911 E7.6054
G1 X131.174 Y134.262 E7.8873
G1 X131.215 Y134.075 E7.8968
G1 X131.297 Y133.960 E7.9039
G1 X131.449 Y133.870 E7.9127
G1 X131.588 Y133.847 E7.9197
G1 X136.570 Y133.854 E8.1682
G1 X173.360 Y133.902 E10.0037
G1 X173.543 Y133.940 E10.0130
G1 X173.651 Y134.016 E10.0196
G1 X173.731 Y134.122 E10.0262
G1 X173.775 Y134.310 E10.0359
G1 X173.750 Y152.232 E10.9300
G1 F2400 E10.4300
G0 F6000 X173.193 Y135.010
;TYPE:SOLID-FILL
;WIDTH:0.400
G1 F1500 E10.9300
G1 F900 X172.665 Y134.481 E10.9673
G0 F6000 X172.098 Y134.480
G1 F900 X173.193 Y135.574 E11.0445
G0 F6000 X173.192 Y136.139
G1 F900 X171.532 Y134.479 E11.1616
G0 F6000 X170.965 Y134.478
G1 F900 X173.191 Y136.704 E11.3187
G0 F6000 X173.190 Y137.269
G1 F900 X170.399 Y134.478 E11.5156
G0 F6000 X169.832 Y134.477
G1 F900 X173.190 Y137.834 E11.7525
G0 F6000 X173.188 Y138.399
G1 F900 X169.266 Y134.476 E12.0293
G0 F6000 X168.700 Y134.476
G1 F900 X173.188 Y138.964 E12.3459
G0 F6000 X173.187 Y139.529
G1 F900 X168.133 Y134.475 E12.7025
G0 F6000 X167.567 Y134.474
G1 F900 X173.186 Y140.094 E13.0990
G0 F6000 X173.186 Y140.659
G1 F900 X167.000 Y134.474 E13.5354
G0 F6000 X166.434 Y134.473
G1 F900 X173.185 Y141.224 E14.0117
G0 F6000 X173.183 Y141.788
G1 F900 X165.868 Y134.472 E14.5279
G0 F6000 X165.301 Y134.471
G1 F900 X173.183 Y142.353 E15.0840
G0 F6000 X173.182 Y142.918
G1 F900 X164.735 Y134.471 E15.6800
G0 F6000 X164.168 Y134.470
G1 F900 X173.181 Y143.483 E16.3159
G0 F6000 X173.181 Y144.048
G1 F900 X163.602 Y134.469 E16.9917
G0 F6000 X163.036 Y134.469
G1 F900 X173.180 Y144.613 E17.7075
G0 F6000 X173.178 Y145.177
G1 F900 X162.469 Y134.468 E18.4630
G0 F6000 X161.903 Y134.467
G1 F900 X173.178 Y145.742 E19.2586
G0 F6000 X173.177 Y146.307
G1 F900 X161.337 Y134.466 E20.0940
G0 F6000 X160.770 Y134.466
G1 F900 X173.176 Y146.872 E20.9693
G0 F6000 X173.176 Y147.437
G1 F900 X160.204 Y134.465 E21.8845
G0 F6000 X159.637 Y134.464
G1 F900 X173.175 Y148.002 E22.8397
G0 F6000 X173.173 Y148.566
G1 F900 X159.071 Y134.464 E23.8347
G0 F6000 X158.505 Y134.463
G1 F900 X173.173 Y149.131 E24.8696
G0 F6000 X173.172 Y149.696
G1 F900 X157.938 Y134.462 E25.9444
G0 F6000 X157.372 Y134.462
G1 F900 X173.171 Y150.261 E27.0591
G0 F6000 X173.171 Y150.826
G1 F900 X156.805 Y134.461 E28.2138
G0 F6000 X156.238 Y134.459
G1 F900 X173.170 Y151.391 E29.4084
G0 F6000 X172.461 Y151.248
G1 F900 X155.672 Y134.459 E30.5930
G0 F6000 X155.105 Y134.458
G1 F900 X171.684 Y151.037 E31.7627
G0 F6000 X170.866 Y150.784
G1 F900 X154.539 Y134.457 E32.9147
G0 F6000 X153.973 Y134.457
G1 F900 X170.117 Y150.601 E34.0537
G0 F6000 X169.292 Y150.342
G1 F900 X153.406 Y134.456 E35.1746
G0 F6000 X152.840 Y134.455
G1 F900 X168.495 Y150.110 E36.2791
G0 F6000 X167.698 Y149.879
G1 F900 X152.274 Y134.454 E37.3674
G0 F6000 X151.707 Y134.454
G1 F900 X166.901 Y149.648 E38.4394
G0 F6000 X166.105 Y149.417
G1 F900 X151.141 Y134.453 E39.4952
G0 F6000 X150.574 Y134.452
G1 F900 X165.308 Y149.186 E40.5348
G0 F6000 X164.511 Y148.954
G1 F900 X150.008 Y134.452 E41.5580
G0 F6000 X149.442 Y134.451
G1 F900 X163.714 Y148.723 E42.5650
G0 F6000 X162.917 Y148.492
G1 F900 X148.875 Y134.450 E43.5557
G0 F6000 X148.309 Y134.449
G1 F900 X162.119 Y148.260 E44.5301
G0 F6000 X161.322 Y148.029
G1 F900 X147.742 Y134.449 E45.4883
G0 F6000 X147.176 Y134.448
G1 F900 X160.525 Y147.798 E46.4301
G0 F6000 X159.729 Y147.566
G1 F900 X146.610 Y134.447 E47.3558
G0 F6000 X146.043 Y134.447
G1 F900 X158.932 Y147.335 E48.2651
G0 F6000 X158.135 Y147.104
G1 F900 X145.477 Y134.446 E49.1582
G0 F6000 X144.910 Y134.445
G1 F900 X157.338 Y146.873 E50.0351
G0 F6000 X156.541 Y146.641
G1 F900 X144.344 Y134.445 E50.8956
G0 F6000 X143.778 Y134.444
G1 F900 X155.744 Y146.410 E51.7399
G0 F6000 X154.947 Y146.179
G1 F900 X143.211 Y134.443 E52.5679
G0 F6000 X142.645 Y134.442
G1 F900 X154.150 Y145.948 E53.3797
G0 F6000 X153.353 Y145.717
G1 F900 X142.078 Y134.442 E54.1752
G0 F6000 X141.512 Y134.441
G1 F900 X152.556 Y145.485 E54.9544
G0 F6000 X151.759 Y145.253
G1 F900 X140.946 Y134.440 E55.7173
G0 F6000 X140.379 Y134.439
G1 F900 X150.962 Y145.022 E56.4640
G0 F6000 X150.165 Y144.791
G1 F900 X139.812 Y134.438 E57.1945
G0 F6000 X139.246 Y134.437
G1 F900 X149.368 Y144.560 E57.9087
G0 F6000 X148.571 Y144.328
G1 F900 X138.679 Y134.437 E58.6066
G0 F6000 X138.113 Y134.436
G1 F900 X147.774 Y144.097 E59.2882
G0 F6000 X146.977 Y143.866
G1 F900 X137.547 Y134.435 E59.9536
G0 F6000 X136.980 Y134.435
G1 F900 X146.180 Y143.635 E60.6027
G0 F6000 X145.383 Y143.404
G1 F900 X136.414 Y134.434 E61.2355
G0 F6000 X135.847 Y134.433
G1 F900 X144.587 Y143.172 E61.8521
G0 F6000 X143.790 Y142.941
G1 F900 X135.281 Y134.433 E62.4525
G0 F6000 X134.714 Y134.431
G1 F900 X142.993 Y142.710 E63.0366
G0 F6000 X142.197 Y142.479
G1 F900 X134.148 Y134.430 E63.6045
G0 F6000 X133.581 Y134.430
G1 F900 X141.422 Y142.271 E64.1577
G0 F6000 X140.616 Y142.030
G1 F900 X133.014 Y134.428 E64.6941
G0 F6000 X132.448 Y134.428
G1 F900 X139.843 Y141.823 E65.2158
G0 F6000 X139.046 Y141.592
G1 F900 X131.881 Y134.427 E65.7214
G0 F6000 X131.753 Y134.864
G1 F900 X138.249 Y141.361 E66.1797
G0 F6000 X137.453 Y141.130
G1 F900 X131.752 Y135.429 E66.5820
G0 F6000 X131.750 Y135.993
G1 F900 X136.656 Y140.899 E66.9281
G0 F6000 X135.859 Y140.668
G1 F900 X131.750 Y136.558 E67.2181
G0 F6000 X131.749 Y137.123
G1 F900 X135.063 Y140.437 E67.4519
G0 F6000 X134.266 Y140.205
G1 F900 X131.748 Y137.688 E67.6295
G0 F6000 X131.748 Y138.253
G1 F900 X133.469 Y139.974 E67.7509
G0 F6000 X132.672 Y139.743
G1 F900 X131.747 Y138.818 E67.8162
G0 F6000 X131.746 Y139.383
G1 F900 X131.876 Y139.512 E67.8253
;PRINTING: NON-OBJECT
;PRINTING_ID: -1
G1 F2400 E67.3253
G0 F6000 X131.941 Y148.002
;TYPE:SUPPORT
;WIDTH:0.400
G1 F1500 E67.8253
G1 F900 X130.625 Y149.318 E67.9182
G1 X130.625 Y151.203 E68.0122
G1 X133.397 Y148.431 E68.2078
G1 X134.863 Y148.850 E68.2839
G1 X130.625 Y153.088 E68.5829
G1 X130.625 Y154.973 E68.6769
G1 X136.324 Y149.274 E69.0790
G1 X137.785 Y149.698 E69.1549
G1 X130.625 Y156.858 E69.6601
G1 X130.625 Y158.744 E69.7542
G1 X139.246 Y150.123 E70.3624
G1 X140.707 Y150.547 E70.4383
G1 X130.625 Y160.629 E71.1497
G1 X130.625 Y162.514 E71.2437
G1 X142.168 Y150.971 E72.0581
G1 X143.628 Y151.396 E72.1340
G1 X130.625 Y164.399 E73.0514
G1 X130.625 Y166.284 E73.1455
G1 X145.089 Y151.820 E74.1660
G1 X146.550 Y152.245 E74.2419
G1 X130.625 Y168.169 E75.3655
G1 X130.625 Y170.054 E75.4595
G1 X148.010 Y152.669 E76.6861
G1 X149.471 Y153.093 E76.7620
G1 X137.827 Y164.737 E77.5836
G1 X136.924 Y165.640 E77.6473
G1 X130.625 Y171.940 E78.0917
G1 X131.523 Y172.926 E78.1583
G1 X136.078 Y168.372 E78.4796
G1 X137.825 Y166.625 E78.6029
G1 X150.932 Y153.517 E79.5277
G1 X152.396 Y153.939 E79.6037
G1 X133.409 Y172.926 E80.9433
G1 X135.294 Y172.926 E81.0374
G1 X153.867 Y154.352 E82.3478
G1 X155.338 Y154.767 E82.4241
G1 X137.179 Y172.926 E83.7053
G1 X139.064 Y172.926 E83.7993
G1 X156.800 Y155.190 E85.0507
G1 X158.261 Y155.614 E85.1266
G1 X140.949 Y172.926 E86.3481
G1 X142.834 Y172.926 E86.4421
G1 X159.722 Y156.038 E87.6336
G1 X161.184 Y156.462 E87.7096
G1 X144.720 Y172.926 E88.8712
G1 X146.605 Y172.926 E88.9653
G1 X162.645 Y156.886 E90.0970
G1 X164.106 Y157.310 E90.1729
G1 X148.490 Y172.926 E91.2747
G1 X150.375 Y172.926 E91.3687
G1 X165.567 Y157.734 E92.4406
G1 X167.029 Y158.157 E92.5165
G1 X152.260 Y172.926 E93.5585
G1 X154.145 Y172.926 E93.6526
G1 X168.466 Y158.605 E94.6630
G1 X169.920 Y159.036 E94.7387
G1 X156.030 Y172.926 E95.7187
G1 X157.916 Y172.926 E95.8128
G1 X171.414 Y159.427 E96.7652
G1 X172.867 Y159.860 E96.8408
G1 X168.170 Y164.557 E97.1722
G1 X167.923 Y164.803 E97.1896
G1 X159.801 Y172.926 E97.7627
G1 X161.686 Y172.926 E97.8567
G1 X166.725 Y167.887 E98.2123
G1 X167.695 Y168.802 E98.2788
G1 X163.571 Y172.926 E98.5698
G1 X165.456 Y172.926 E98.6638
G1 X174.324 Y164.058 E99.2895
G1 X174.324 Y162.173 E99.3835
G1 X169.024 Y167.473 E99.7575
G1 X169.574 Y165.038 E99.8820
G1 X174.324 Y160.288 E100.2172
G1 F2400 E99.7172
G0 F6000 X167.341 Y172.926
G1 F1500 E100.2172
G1 F900 X169.226 Y172.926 E100.3112
G1 X174.324 Y167.828 E100.6709
G1 F2400 E100.1709
G0 F6000 X174.324 Y165.943
G1 F1500 E100.6709
G1 F900 X167.341 Y172.926 E101.1636
G1 F2400 E100.6636
G0 F6000 X171.112 Y172.926
G1 F1500 E101.1636
G1 F900 X172.997 Y172.926 E101.2576
G1 X174.324 Y171.599 E101.3512
G1 F2400 E100.8512
G0 F6000 X174.324 Y169.714
G1 F1500 E101.3512
G1 F900 X171.112 Y172.926 E101.5779
;PRINTING_TIME: 146
;REMAINING_TIME: 2542
;LAYER:1
;Z:0.400
;HEIGHT:0.100
M106 S255
;PRINTING: 1.STL
;PRINTING_ID: 0
G1 F2400 E101.0779
G0 F300 Z0.400
G0 F6000 X131.574 Y134.246
;TYPE:WALL-INNER
;WIDTH:0.400
G1 F1500 E101.5779
G1 F1275 X142.145 Y134.260 E101.7537
G1 X173.375 Y134.301 E102.2730
G1 X173.342 Y159.162 E102.6865
G1 X172.122 Y158.825 E102.7075
G1 X171.931 Y158.728 E102.7111
G1 X171.314 Y158.581 E102.7216
G1 X170.921 Y158.434 E102.7286
G1 X170.462 Y158.354 E102.7364
G1 X170.057 Y158.246 E102.7433
G1 X169.590 Y158.079 E102.7516
G1 X168.580 Y157.806 E102.7690
G1 X168.193 Y157.665 E102.7758
G1 X155.531 Y153.990 E102.9951
G1 X154.764 Y153.796 E103.0082
G1 X153.634 Y153.443 E103.0279
G1 X153.428 Y153.402 E103.0314
G1 X153.350 Y153.364 E103.0329
G1 X152.457 Y153.128 E103.0482
G1 X133.864 Y147.728 E103.3702
G1 X132.794 Y147.447 E103.3886
G1 X132.419 Y147.309 E103.3952
G1 X131.557 Y147.063 E103.4101
G1 X131.574 Y134.246 E103.6233
G1 F2400 E103.1233
G0 F6000 X131.196 Y134.128
;TYPE:WALL-OUTER
;WIDTH:0.400
G1 F1500 E103.6233
G1 F1050 X131.251 Y134.015 E103.6254
G1 X131.382 Y133.897 E103.6283
G1 X131.576 Y133.846 E103.6317
G1 X142.245 Y133.860 E103.8091
G1 X173.361 Y133.901 E104.3265
G1 X173.542 Y133.938 E104.3296
G1 X173.649 Y134.012 E104.3318
G1 X173.752 Y134.170 E104.3349
G1 X173.775 Y134.316 E104.3374
G1 X173.741 Y159.687 E104.7593
G1 X171.977 Y159.200 E104.7897
G1 X171.792 Y159.106 E104.7932
G1 X171.197 Y158.964 E104.8034
G1 X170.816 Y158.822 E104.8101
G1 X170.376 Y158.745 E104.8175
G1 X169.938 Y158.628 E104.8251
G1 X169.470 Y158.461 E104.8333
G1 X168.459 Y158.188 E104.8508
G1 X168.068 Y158.045 E104.8577
G1 X155.426 Y154.376 E105.0766
G1 X154.655 Y154.181 E105.0898
G1 X153.536 Y153.831 E105.1093
G1 X153.300 Y153.785 E105.1133
G1 X153.210 Y153.741 E105.1150
G1 X152.350 Y153.513 E105.1298
G1 X133.757 Y148.114 E105.4518
G1 X132.674 Y147.829 E105.4704
G1 X132.295 Y147.690 E105.4771
G1 X131.157 Y147.365 E105.4968
G1 X131.174 Y134.261 E105.7147
G1 X131.196 Y134.128 E105.7169
G0 F6000 X131.800 Y134.427
;TYPE:BRIDGE
;WIDTH:0.400
G1 F1575 X131.800 Y146.944 E105.9251
G0 F6000 X132.200 Y147.058
G1 F1575 X132.200 Y134.427 E106.1351
G0 F6000 X132.600 Y134.428
G1 F1575 X132.600 Y147.184 E106.3473
G0 F6000 X133.000 Y147.314
G1 F1575 X133.000 Y134.428 E106.5616
G0 F6000 X133.400 Y134.429
G1 F1575 X133.400 Y147.419 E106.7776
G0 F6000 X133.800 Y147.524
G1 F1575 X133.800 Y134.429 E106.9954
G0 F6000 X134.200 Y134.430
G1 F1575 X134.200 Y147.637 E107.2150
G0 F6000 X134.600 Y147.753
G1 F1575 X134.600 Y134.430 E107.4366
G0 F6000 X135.000 Y134.431
G1 F1575 X135.000 Y147.869 E107.6600
G0 F6000 X135.400 Y147.986
G1 F1575 X135.400 Y134.431 E107.8855
G0 F6000 X135.800 Y134.432
G1 F1575 X135.800 Y148.102 E108.1128
G0 F6000 X136.200 Y148.218
G1 F1575 X136.200 Y134.432 E108.3421
G0 F6000 X136.600 Y134.433
G1 F1575 X136.600 Y148.334 E108.5732
G0 F6000 X137.000 Y148.450
G1 F1575 X137.000 Y134.434 E108.8063
G0 F6000 X137.400 Y134.434
G1 F1575 X137.400 Y148.567 E109.0414
G0 F6000 X137.800 Y148.683
G1 F1575 X137.800 Y134.435 E109.2783
G0 F6000 X138.200 Y134.435
G1 F1575 X138.200 Y148.799 E109.5172
G0 F6000 X138.600 Y148.915
G1 F1575 X138.600 Y134.436 E109.7580
G0 F6000 X139.000 Y134.436
G1 F1575 X139.000 Y149.031 E110.0007
G0 F6000 X139.400 Y149.147
G1 F1575 X139.400 Y134.437 E110.2453
G0 F6000 X139.800 Y134.437
G1 F1575 X139.800 Y149.264 E110.4919
G0 F6000 X140.200 Y149.380
G1 F1575 X140.200 Y134.438 E110.7404
G0 F6000 X140.600 Y134.438
G1 F1575 X140.600 Y149.496 E110.9908
G0 F6000 X141.000 Y149.612
G1 F1575 X141.000 Y134.439 E111.2431
G0 F6000 X141.400 Y134.439
G1 F1575 X141.400 Y149.728 E111.4974
G0 F6000 X141.800 Y149.844
G1 F1575 X141.800 Y134.440 E111.7535
G0 F6000 X142.200 Y134.441
G1 F1575 X142.200 Y149.961 E112.0116
G0 F6000 X142.600 Y150.077
G1 F1575 X142.600 Y134.441 E112.2717
G0 F6000 X143.000 Y134.442
G1 F1575 X143.000 Y150.193 E112.5336
G0 F6000 X143.400 Y150.309
G1 F1575 X143.400 Y134.442 E112.7975
G0 F6000 X143.800 Y134.443
G1 F1575 X143.800 Y150.425 E113.0633
G0 F6000 X144.200 Y150.541
G1 F1575 X144.200 Y134.443 E113.3310
G0 F6000 X144.600 Y134.444
G1 F1575 X144.600 Y150.658 E113.6006
G0 F6000 X145.000 Y150.774
G1 F1575 X145.000 Y134.444 E113.8722
G0 F6000 X145.400 Y134.445
G1 F1575 X145.400 Y150.890 E114.1457
G0 F6000 X145.800 Y151.006
G1 F1575 X145.800 Y134.445 E114.4211
G0 F6000 X146.200 Y134.446
G1 F1575 X146.200 Y151.122 E114.6984
G0 F6000 X146.600 Y151.238
G1 F1575 X146.600 Y134.446 E114.9776
G0 F6000 X147.000 Y134.447
G1 F1575 X147.000 Y151.355 E115.2588
G0 F6000 X147.400 Y151.471
G1 F1575 X147.400 Y134.447 E115.5419
G0 F6000 X147.800 Y134.448
G1 F1575 X147.800 Y151.587 E115.8270
G0 F6000 X148.200 Y151.703
G1 F1575 X148.200 Y134.448 E116.1139
G0 F6000 X148.600 Y134.449
G1 F1575 X148.600 Y151.819 E116.4028
G0 F6000 X149.000 Y151.936
G1 F1575 X149.000 Y134.450 E116.6936
G0 F6000 X149.400 Y134.450
G1 F1575 X149.400 Y152.052 E116.9863
G0 F6000 X149.800 Y152.168
G1 F1575 X149.800 Y134.451 E117.2809
G0 F6000 X150.200 Y134.451
G1 F1575 X150.200 Y152.284 E117.5775
G0 F6000 X150.600 Y152.400
G1 F1575 X150.600 Y134.452 E117.8760
G0 F6000 X151.000 Y134.452
G1 F1575 X151.000 Y152.516 E118.1764
G0 F6000 X151.400 Y152.633
G1 F1575 X151.400 Y134.453 E118.4787
G0 F6000 X151.800 Y134.453
G1 F1575 X151.800 Y152.749 E118.7830
G0 F6000 X152.200 Y152.865
G1 F1575 X152.200 Y134.454 E119.0891
